svgs/moelist.svg

<svg width="192" height="192" viewBox="0 0 192 192" fill="none" xmlns="http://www.w3.org/2000/svg">
<path d="M48.1135 46.0037H151.317" stroke="black" stroke-width="12" stroke-linecap="round" stroke-linejoin="round"/>
<path d="M99.7329 30V96.8377" stroke="black" stroke-width="12" stroke-linecap="round" stroke-linejoin="round"/>
<path d="M58.5087 71.9744H140.922" stroke="black" stroke-width="12" stroke-linecap="round" stroke-linejoin="round"/>
<path d="M129.169 97.1233H170" stroke="black" stroke-width="12" stroke-linecap="round" stroke-linejoin="round"/>
<path d="M109.771 96.8375H89.7304V120.344H109.771V96.8375Z" stroke="black" stroke-width="12" stroke-linecap="round" stroke-linejoin="round"/>
<path d="M137.278 97.1233C137.278 112.52 134.385 136.955 157.676 162.389" stroke="black" stroke-width="12" stroke-linecap="round" stroke-linejoin="round"/>
<path d="M170 131.382L136.099 147.743" stroke="black" stroke-width="12" stroke-linecap="round" stroke-linejoin="round"/>
<path d="M137.635 118.307H149.603" stroke="black" stroke-width="12" stroke-linecap="round" stroke-linejoin="round"/>
<path d="M105.52 141.098C96.268 149.636 76.6561 159.996 64.2961 162.103" stroke="black" stroke-width="12" stroke-linecap="round" stroke-linejoin="round"/>
<path d="M25.0722 97.1233H45.8629L53.2933 104.553L60.4379 97.4091H66.9752C66.9752 115.485 67.1895 131.667 57.5443 144.385" stroke="black" stroke-width="12" stroke-linecap="round" stroke-linejoin="round"/>
<path d="M22 157.28C31.4308 146.885 39.8615 133.81 39.8615 97.2305" stroke="black" stroke-width="12" stroke-linecap="round" stroke-linejoin="round"/>
</svg>

<svg width="192" height="192" viewBox="0 0 192 192" fill="none" xmlns="http://www.w3.org/2000/svg"><path d="M48.114 46.004h103.203M99.733 30v66.838M58.509 71.974h82.413M129.169 97.123H170M109.771 96.838h-20.04v23.506h20.04V96.838ZM137.278 97.123c0 15.397-2.893 39.832 20.398 65.266M170 131.382l-33.901 16.361M137.635 118.307h11.968M105.52 141.098c-9.252 8.538-28.864 18.898-41.224 21.005M25.072 97.123h20.79l7.431 7.43 7.145-7.144h6.537c0 18.076.215 34.258-9.43 46.976" stroke="#000" stroke-width="12" stroke-linecap="round" stroke-linejoin="round"/><path d="M22 157.28c9.43-10.395 17.861-23.47 17.861-60.05" stroke="#000" stroke-width="12" stroke-linecap="round" stroke-linejoin="round"/></svg>
